svgs/sharp-regular/child-combatant.svg

<svg xmlns="http://www.w3.org/2000/svg" viewBox="0 0 576 512"><!--! Font Awesome Pro 6.6.0 by @fontawesome - https://fontawesome.com License - https://fontawesome.com/license (Commercial License) Copyright 2024 Fonticons, Inc. --><path d="M160 64a16 16 0 1 1 32 0 16 16 0 1 1 -32 0zm80 0A64 64 0 1 0 112 64a64 64 0 1 0 128 0zM134.5 160l-14.1 0-6.9 12.3L51 284.3l-11.7 21 41.9 23.4 11.7-21 19-34.1L112 488l0 24 48 0 0-24 0-104 32 0 0 104 0 24 48 0 0-24 0-214.4 19 34.1 11.7 21 41.9-23.4-11.7-21-62.5-112L231.6 160l-14.1 0-83 0zM192 336l-32 0 0-128 32 0 0 128zM416 0L400 0l0 32 16 0 0 96-16 0 0 16 0 32 0 16-48 0 0 48 0 96 0 48 16 0 32 0 16 0 0 48 0 32 0 48 46.5 0 1.5 0 48 0-12-48-16-64 60 0 0-48-64 0 0-26.7L544 304l0-112-48 0 0 72-16 5.3 0-93.3 0-48-16 0L464 0 448 0 416 0zm16 336l-16 0-16 0 0-96 32 0 0 96z"/></svg>

<svg xmlns="http://www.w3.org/2000/svg" viewBox="0 0 576 512"><!--! Font Awesome Pro 6.4.0 by @fontawesome - https://fontawesome.com License - https://fontawesome.com/license (Commercial License) Copyright 2023 Fonticons, Inc. --><path d="M160 64a16 16 0 1 1 32 0 16 16 0 1 1 -32 0zm80 0A64 64 0 1 0 112 64a64 64 0 1 0 128 0zM134.5 160H120.4l-6.9 12.3L51 284.3l-11.7 21 41.9 23.4 11.7-21 19-34.1V488v24h48V488 384h32V488v24h48V488 273.6l19 34.1 11.7 21 41.9-23.4-11.7-21-62.5-112L231.6 160H217.5h-83zM192 336H160V208h32V336zM416 0H400V32h16v96H400v16 32 16H352v48 96 48h16 32 16v48 32 48h46.5H464h48l-12-48-16-64h60V352H480V325.3L544 304V192H496v72l-16 5.3V176 128H464V0H448 416zm16 336H416 400V240h32v96z"/></svg>
